images/3233039.svg

<?xml version="1.0" encoding="UTF-8"?>
<svg xmlns="http://www.w3.org/2000/svg" xmlns:xlink="http://www.w3.org/1999/xlink" width="300pt" height="300pt" viewBox="0 0 300 300" version="1.1">
<defs>
<g>
<symbol overflow="visible" id="glyph0-0">
<path style="stroke:none;" d="M 0.453125 1.59375 L 0.453125 -6.34375 L 4.953125 -6.34375 L 4.953125 1.59375 Z M 0.953125 1.09375 L 4.453125 1.09375 L 4.453125 -5.84375 L 0.953125 -5.84375 Z M 0.953125 1.09375 "/>
</symbol>
<symbol overflow="visible" id="glyph0-1">
<path style="stroke:none;" d="M 0.890625 -6.5625 L 2.078125 -6.5625 L 4.984375 -1.078125 L 4.984375 -6.5625 L 5.84375 -6.5625 L 5.84375 0 L 4.65625 0 L 1.75 -5.484375 L 1.75 0 L 0.890625 0 Z M 0.890625 -6.5625 "/>
</symbol>
<symbol overflow="visible" id="glyph0-2">
<path style="stroke:none;" d="M 3.546875 -5.953125 C 2.898438 -5.953125 2.382812 -5.710938 2 -5.234375 C 1.625 -4.753906 1.4375 -4.101562 1.4375 -3.28125 C 1.4375 -2.445312 1.625 -1.789062 2 -1.3125 C 2.382812 -0.832031 2.898438 -0.59375 3.546875 -0.59375 C 4.191406 -0.59375 4.703125 -0.832031 5.078125 -1.3125 C 5.453125 -1.789062 5.640625 -2.445312 5.640625 -3.28125 C 5.640625 -4.101562 5.453125 -4.753906 5.078125 -5.234375 C 4.703125 -5.710938 4.191406 -5.953125 3.546875 -5.953125 Z M 3.546875 -6.6875 C 4.460938 -6.6875 5.195312 -6.375 5.75 -5.75 C 6.300781 -5.132812 6.578125 -4.3125 6.578125 -3.28125 C 6.578125 -2.238281 6.300781 -1.410156 5.75 -0.796875 C 5.195312 -0.179688 4.460938 0.125 3.546875 0.125 C 2.617188 0.125 1.878906 -0.179688 1.328125 -0.796875 C 0.773438 -1.410156 0.5 -2.238281 0.5 -3.28125 C 0.5 -4.3125 0.773438 -5.132812 1.328125 -5.75 C 1.878906 -6.375 2.617188 -6.6875 3.546875 -6.6875 Z M 3.546875 -6.6875 "/>
</symbol>
</g>
</defs>
<g id="surface41237">
<rect x="0" y="0" width="300" height="300" style="fill:rgb(100%,100%,100%);fill-opacity:1;stroke:none;"/>
<path style="fill:none;stroke-width:1.2;stroke-linecap:butt;stroke-linejoin:miter;stroke:rgb(0%,0%,0%);stroke-opacity:1;stroke-miterlimit:10;" d="M 35.25 207.773438 L 58.957031 198.464844 "/>
<path style="fill:none;stroke-width:1.2;stroke-linecap:butt;stroke-linejoin:miter;stroke:rgb(0%,0%,0%);stroke-opacity:1;stroke-miterlimit:10;" d="M 58.957031 198.464844 L 68.917969 206.402344 "/>
<path style="fill:none;stroke-width:1.2;stroke-linecap:butt;stroke-linejoin:miter;stroke:rgb(0%,0%,100%);stroke-opacity:1;stroke-miterlimit:10;" d="M 68.917969 206.402344 L 78.875 214.339844 "/>
<path style="fill:none;stroke-width:1.2;stroke-linecap:butt;stroke-linejoin:miter;stroke:rgb(0%,0%,0%);stroke-opacity:1;stroke-miterlimit:10;" d="M 64.683594 195.367188 L 72.652344 201.714844 "/>
<path style="fill:none;stroke-width:1.2;stroke-linecap:butt;stroke-linejoin:miter;stroke:rgb(0%,0%,100%);stroke-opacity:1;stroke-miterlimit:10;" d="M 72.652344 201.714844 L 80.621094 208.066406 "/>
<path style="fill:none;stroke-width:1.2;stroke-linecap:butt;stroke-linejoin:miter;stroke:rgb(0%,0%,0%);stroke-opacity:1;stroke-miterlimit:10;" d="M 62.75 173.277344 L 58.957031 198.464844 "/>
<path style="fill:none;stroke-width:1.2;stroke-linecap:butt;stroke-linejoin:miter;stroke:rgb(0%,0%,100%);stroke-opacity:1;stroke-miterlimit:10;" d="M 78.875 214.339844 L 90.730469 209.683594 "/>
<path style="fill:none;stroke-width:1.2;stroke-linecap:butt;stroke-linejoin:miter;stroke:rgb(0%,0%,0%);stroke-opacity:1;stroke-miterlimit:10;" d="M 90.730469 209.683594 L 102.582031 205.03125 "/>
<path style=" stroke:none;fill-rule:nonzero;fill:rgb(100%,100%,100%);fill-opacity:1;" d="M 75.875 208.839844 L 82.875 208.839844 L 82.875 219.839844 L 75.875 219.839844 Z M 75.875 208.839844 "/>
<g style="fill:rgb(0%,0%,100%);fill-opacity:1;">
  <use xlink:href="#glyph0-1" x="75.875" y="217.50293"/>
</g>
<path style="fill:none;stroke-width:1.2;stroke-linecap:butt;stroke-linejoin:miter;stroke:rgb(0%,0%,0%);stroke-opacity:1;stroke-miterlimit:10;" d="M 102.582031 205.03125 L 122.5 220.90625 "/>
<path style="fill:none;stroke-width:1.2;stroke-linecap:butt;stroke-linejoin:miter;stroke:rgb(0%,0%,0%);stroke-opacity:1;stroke-miterlimit:10;" d="M 108.3125 201.929688 L 124.246094 214.632812 "/>
<path style="fill:none;stroke-width:1.2;stroke-linecap:butt;stroke-linejoin:miter;stroke:rgb(0%,0%,0%);stroke-opacity:1;stroke-miterlimit:10;" d="M 106.375 179.84375 L 102.582031 205.03125 "/>
<path style="fill:none;stroke-width:1.2;stroke-linecap:butt;stroke-linejoin:miter;stroke:rgb(0%,0%,0%);stroke-opacity:1;stroke-miterlimit:10;" d="M 122.5 220.90625 L 134.355469 216.25 "/>
<path style="fill:none;stroke-width:1.2;stroke-linecap:butt;stroke-linejoin:miter;stroke:rgb(0%,0%,100%);stroke-opacity:1;stroke-miterlimit:10;" d="M 134.355469 216.25 L 146.210938 211.59375 "/>
<path style="fill:none;stroke-width:1.2;stroke-linecap:butt;stroke-linejoin:miter;stroke:rgb(0%,0%,100%);stroke-opacity:1;stroke-miterlimit:10;" d="M 146.210938 211.59375 L 148.105469 199 "/>
<path style="fill:none;stroke-width:1.2;stroke-linecap:butt;stroke-linejoin:miter;stroke:rgb(0%,0%,0%);stroke-opacity:1;stroke-miterlimit:10;" d="M 148.105469 199 L 150 186.410156 "/>
<path style="fill:none;stroke-width:1.2;stroke-linecap:butt;stroke-linejoin:miter;stroke:rgb(0%,0%,100%);stroke-opacity:1;stroke-miterlimit:10;" d="M 140.660156 208.183594 L 142.179688 198.109375 "/>
<path style="fill:none;stroke-width:1.2;stroke-linecap:butt;stroke-linejoin:miter;stroke:rgb(0%,0%,0%);stroke-opacity:1;stroke-miterlimit:10;" d="M 142.179688 198.109375 L 143.695312 188.035156 "/>
<path style=" stroke:none;fill-rule:nonzero;fill:rgb(100%,100%,100%);fill-opacity:1;" d="M 143.210938 206.09375 L 150.210938 206.09375 L 150.210938 217.09375 L 143.210938 217.09375 Z M 143.210938 206.09375 "/>
<g style="fill:rgb(0%,0%,100%);fill-opacity:1;">
  <use xlink:href="#glyph0-1" x="143.210938" y="214.756836"/>
</g>
<path style="fill:none;stroke-width:1.2;stroke-linecap:butt;stroke-linejoin:miter;stroke:rgb(0%,0%,0%);stroke-opacity:1;stroke-miterlimit:10;" d="M 150 186.410156 L 140.042969 178.46875 "/>
<path style="fill:none;stroke-width:1.2;stroke-linecap:butt;stroke-linejoin:miter;stroke:rgb(0%,0%,100%);stroke-opacity:1;stroke-miterlimit:10;" d="M 140.042969 178.46875 L 130.082031 170.53125 "/>
<path style="fill:none;stroke-width:1.2;stroke-linecap:butt;stroke-linejoin:miter;stroke:rgb(0%,0%,0%);stroke-opacity:1;stroke-miterlimit:10;" d="M 150 186.410156 L 161.855469 181.753906 "/>
<path style="fill:none;stroke-width:1.2;stroke-linecap:butt;stroke-linejoin:miter;stroke:rgb(100%,0%,0%);stroke-opacity:1;stroke-miterlimit:10;" d="M 161.855469 181.753906 L 173.707031 177.097656 "/>
<path style="fill:none;stroke-width:1.2;stroke-linecap:butt;stroke-linejoin:miter;stroke:rgb(0%,0%,100%);stroke-opacity:1;stroke-miterlimit:10;" d="M 130.082031 170.53125 L 118.226562 175.1875 "/>
<path style="fill:none;stroke-width:1.2;stroke-linecap:butt;stroke-linejoin:miter;stroke:rgb(0%,0%,0%);stroke-opacity:1;stroke-miterlimit:10;" d="M 118.226562 175.1875 L 106.375 179.84375 "/>
<path style="fill:none;stroke-width:1.2;stroke-linecap:butt;stroke-linejoin:miter;stroke:rgb(0%,0%,100%);stroke-opacity:1;stroke-miterlimit:10;" d="M 129.902344 177.042969 L 120.417969 180.765625 "/>
<path style="fill:none;stroke-width:1.2;stroke-linecap:butt;stroke-linejoin:miter;stroke:rgb(0%,0%,0%);stroke-opacity:1;stroke-miterlimit:10;" d="M 120.417969 180.765625 L 110.9375 184.488281 "/>
<path style=" stroke:none;fill-rule:nonzero;fill:rgb(100%,100%,100%);fill-opacity:1;" d="M 127.082031 165.03125 L 134.082031 165.03125 L 134.082031 176.03125 L 127.082031 176.03125 Z M 127.082031 165.03125 "/>
<g style="fill:rgb(0%,0%,100%);fill-opacity:1;">
  <use xlink:href="#glyph0-1" x="127.082031" y="173.694336"/>
</g>
<path style="fill:none;stroke-width:1.2;stroke-linecap:butt;stroke-linejoin:miter;stroke:rgb(0%,0%,0%);stroke-opacity:1;stroke-miterlimit:10;" d="M 106.375 179.84375 L 96.414062 171.90625 "/>
<path style="fill:none;stroke-width:1.2;stroke-linecap:butt;stroke-linejoin:miter;stroke:rgb(0%,0%,100%);stroke-opacity:1;stroke-miterlimit:10;" d="M 96.414062 171.90625 L 86.457031 163.964844 "/>
<path style="fill:none;stroke-width:1.2;stroke-linecap:butt;stroke-linejoin:miter;stroke:rgb(0%,0%,100%);stroke-opacity:1;stroke-miterlimit:10;" d="M 86.457031 163.964844 L 74.601562 168.621094 "/>
<path style="fill:none;stroke-width:1.2;stroke-linecap:butt;stroke-linejoin:miter;stroke:rgb(0%,0%,0%);stroke-opacity:1;stroke-miterlimit:10;" d="M 74.601562 168.621094 L 62.75 173.277344 "/>
<path style="fill:none;stroke-width:1.2;stroke-linecap:butt;stroke-linejoin:miter;stroke:rgb(0%,0%,100%);stroke-opacity:1;stroke-miterlimit:10;" d="M 86.457031 163.964844 L 88.351562 151.371094 "/>
<path style="fill:none;stroke-width:1.2;stroke-linecap:butt;stroke-linejoin:miter;stroke:rgb(0%,0%,0%);stroke-opacity:1;stroke-miterlimit:10;" d="M 88.351562 151.371094 L 90.246094 138.777344 "/>
<path style=" stroke:none;fill-rule:nonzero;fill:rgb(100%,100%,100%);fill-opacity:1;" d="M 83.457031 158.464844 L 90.457031 158.464844 L 90.457031 169.464844 L 83.457031 169.464844 Z M 83.457031 158.464844 "/>
<g style="fill:rgb(0%,0%,100%);fill-opacity:1;">
  <use xlink:href="#glyph0-1" x="83.457031" y="167.12793"/>
</g>
<path style="fill:none;stroke-width:1.2;stroke-linecap:butt;stroke-linejoin:miter;stroke:rgb(0%,0%,0%);stroke-opacity:1;stroke-miterlimit:10;" d="M 64.617188 170.933594 L 54.65625 162.996094 "/>
<path style="fill:none;stroke-width:1.2;stroke-linecap:butt;stroke-linejoin:miter;stroke:rgb(100%,0%,0%);stroke-opacity:1;stroke-miterlimit:10;" d="M 54.65625 162.996094 L 44.699219 155.058594 "/>
<path style="fill:none;stroke-width:1.2;stroke-linecap:butt;stroke-linejoin:miter;stroke:rgb(0%,0%,0%);stroke-opacity:1;stroke-miterlimit:10;" d="M 60.882812 175.621094 L 50.921875 167.683594 "/>
<path style="fill:none;stroke-width:1.2;stroke-linecap:butt;stroke-linejoin:miter;stroke:rgb(100%,0%,0%);stroke-opacity:1;stroke-miterlimit:10;" d="M 50.921875 167.683594 L 40.964844 159.742188 "/>
<path style=" stroke:none;fill-rule:nonzero;fill:rgb(100%,100%,100%);fill-opacity:1;" d="M 34.832031 151.902344 L 42.832031 151.902344 L 42.832031 162.902344 L 34.832031 162.902344 Z M 34.832031 151.902344 "/>
<g style="fill:rgb(100%,0%,0%);fill-opacity:1;">
  <use xlink:href="#glyph0-2" x="34.832031" y="160.56543"/>
</g>
<path style="fill:none;stroke-width:1.2;stroke-linecap:butt;stroke-linejoin:miter;stroke:rgb(0%,0%,0%);stroke-opacity:1;stroke-miterlimit:10;" d="M 90.246094 138.777344 L 113.957031 129.46875 "/>
<path style="fill:none;stroke-width:1.2;stroke-linecap:butt;stroke-linejoin:miter;stroke:rgb(0%,0%,0%);stroke-opacity:1;stroke-miterlimit:10;" d="M 113.957031 129.46875 L 117.746094 104.28125 "/>
<path style="fill:none;stroke-width:1.2;stroke-linecap:butt;stroke-linejoin:miter;stroke:rgb(0%,0%,0%);stroke-opacity:1;stroke-miterlimit:10;" d="M 117.746094 104.28125 L 119.640625 91.6875 "/>
<path style="fill:none;stroke-width:1.2;stroke-linecap:butt;stroke-linejoin:miter;stroke:rgb(0%,0%,100%);stroke-opacity:1;stroke-miterlimit:10;" d="M 119.640625 91.6875 L 121.535156 79.09375 "/>
<path style="fill:none;stroke-width:1.2;stroke-linecap:butt;stroke-linejoin:miter;stroke:rgb(0%,0%,0%);stroke-opacity:1;stroke-miterlimit:10;" d="M 124.050781 102.652344 L 125.566406 92.578125 "/>
<path style="fill:none;stroke-width:1.2;stroke-linecap:butt;stroke-linejoin:miter;stroke:rgb(0%,0%,100%);stroke-opacity:1;stroke-miterlimit:10;" d="M 125.566406 92.578125 L 127.085938 82.503906 "/>
<path style="fill:none;stroke-width:1.2;stroke-linecap:butt;stroke-linejoin:miter;stroke:rgb(0%,0%,0%);stroke-opacity:1;stroke-miterlimit:10;" d="M 112.199219 100.871094 L 113.714844 90.796875 "/>
<path style="fill:none;stroke-width:1.2;stroke-linecap:butt;stroke-linejoin:miter;stroke:rgb(0%,0%,100%);stroke-opacity:1;stroke-miterlimit:10;" d="M 113.714844 90.796875 L 115.230469 80.71875 "/>
<path style=" stroke:none;fill-rule:nonzero;fill:rgb(100%,100%,100%);fill-opacity:1;" d="M 118.535156 73.59375 L 125.535156 73.59375 L 125.535156 84.59375 L 118.535156 84.59375 Z M 118.535156 73.59375 "/>
<g style="fill:rgb(0%,0%,100%);fill-opacity:1;">
  <use xlink:href="#glyph0-1" x="118.535156" y="82.256836"/>
</g>
<path style="fill:none;stroke-width:1.2;stroke-linecap:butt;stroke-linejoin:miter;stroke:rgb(100%,0%,0%);stroke-opacity:1;stroke-miterlimit:10;" d="M 173.707031 177.097656 L 183.667969 185.035156 "/>
<path style="fill:none;stroke-width:1.2;stroke-linecap:butt;stroke-linejoin:miter;stroke:rgb(0%,0%,0%);stroke-opacity:1;stroke-miterlimit:10;" d="M 183.667969 185.035156 L 193.625 192.972656 "/>
<path style=" stroke:none;fill-rule:nonzero;fill:rgb(100%,100%,100%);fill-opacity:1;" d="M 169.707031 171.597656 L 177.707031 171.597656 L 177.707031 182.597656 L 169.707031 182.597656 Z M 169.707031 171.597656 "/>
<g style="fill:rgb(100%,0%,0%);fill-opacity:1;">
  <use xlink:href="#glyph0-2" x="169.707031" y="180.260742"/>
</g>
<path style="fill:none;stroke-width:1.2;stroke-linecap:butt;stroke-linejoin:miter;stroke:rgb(0%,0%,0%);stroke-opacity:1;stroke-miterlimit:10;" d="M 193.625 192.972656 L 217.332031 183.664062 "/>
<path style="fill:none;stroke-width:1.2;stroke-linecap:butt;stroke-linejoin:miter;stroke:rgb(0%,0%,0%);stroke-opacity:1;stroke-miterlimit:10;" d="M 217.332031 183.664062 L 237.25 199.539062 "/>
<path style="fill:none;stroke-width:1.2;stroke-linecap:butt;stroke-linejoin:miter;stroke:rgb(0%,0%,0%);stroke-opacity:1;stroke-miterlimit:10;" d="M 223.0625 180.5625 L 238.996094 193.265625 "/>
<path style="fill:none;stroke-width:1.2;stroke-linecap:butt;stroke-linejoin:miter;stroke:rgb(0%,0%,0%);stroke-opacity:1;stroke-miterlimit:10;" d="M 221.125 158.476562 L 217.332031 183.664062 "/>
<path style="fill:none;stroke-width:1.2;stroke-linecap:butt;stroke-linejoin:miter;stroke:rgb(0%,0%,0%);stroke-opacity:1;stroke-miterlimit:10;" d="M 237.25 199.539062 L 260.960938 190.226562 "/>
<path style="fill:none;stroke-width:1.2;stroke-linecap:butt;stroke-linejoin:miter;stroke:rgb(0%,0%,0%);stroke-opacity:1;stroke-miterlimit:10;" d="M 260.960938 190.226562 L 264.75 165.042969 "/>
<path style="fill:none;stroke-width:1.2;stroke-linecap:butt;stroke-linejoin:miter;stroke:rgb(0%,0%,0%);stroke-opacity:1;stroke-miterlimit:10;" d="M 255.410156 186.816406 L 258.445312 166.667969 "/>
<path style="fill:none;stroke-width:1.2;stroke-linecap:butt;stroke-linejoin:miter;stroke:rgb(0%,0%,0%);stroke-opacity:1;stroke-miterlimit:10;" d="M 264.75 165.042969 L 244.832031 149.164062 "/>
<path style="fill:none;stroke-width:1.2;stroke-linecap:butt;stroke-linejoin:miter;stroke:rgb(0%,0%,0%);stroke-opacity:1;stroke-miterlimit:10;" d="M 244.832031 149.164062 L 221.125 158.476562 "/>
<path style="fill:none;stroke-width:1.2;stroke-linecap:butt;stroke-linejoin:miter;stroke:rgb(0%,0%,0%);stroke-opacity:1;stroke-miterlimit:10;" d="M 244.652344 155.675781 L 225.6875 163.121094 "/>
</g>
</svg>

<svg xmlns="http://www.w3.org/2000/svg" xmlns:xlink="http://www.w3.org/1999/xlink" width="300pt" height="300pt" viewBox="0 0 300 300"><defs><symbol overflow="visible"><path d="M.453 1.594v-7.938h4.5v7.938zm.5-.5h3.5v-6.938h-3.5zm0 0"/></symbol><symbol overflow="visible" id="a"><path d="M.89-6.563H2.08l2.906 5.485v-5.484h.86V0H4.656L1.75-5.484V0H.89zm0 0"/></symbol><symbol overflow="visible" id="b"><path d="M3.547-5.953c-.65 0-1.164.242-1.547.72-.375.48-.563 1.13-.563 1.952 0 .835.188 1.49.563 1.967.383.48.898.72 1.547.72.644 0 1.156-.24 1.53-.72.376-.476.564-1.132.564-1.968 0-.822-.187-1.474-.562-1.954-.375-.477-.887-.72-1.53-.72zm0-.734c.914 0 1.648.312 2.203.937.55.617.828 1.438.828 2.47 0 1.042-.277 1.87-.828 2.483-.555.617-1.29.922-2.203.922-.93 0-1.668-.305-2.22-.922C.774-1.41.5-2.237.5-3.28c0-1.033.273-1.853.828-2.47.55-.625 1.29-.938 2.22-.938zm0 0"/></symbol></defs><g><path fill="#fff" d="M0 0h300v300H0z"/><path d="M35.25 207.773l23.707-9.308M58.957 198.465l9.96 7.937" stroke-width="1.2" stroke="#000" stroke-miterlimit="10" fill="none"/><path d="M68.918 206.402l9.957 7.938" stroke-width="1.2" stroke="#00f" stroke-miterlimit="10" fill="none"/><path d="M64.684 195.367l7.968 6.348" stroke-width="1.2" stroke="#000" stroke-miterlimit="10" fill="none"/><path d="M72.652 201.715l7.97 6.35" stroke-width="1.2" stroke="#00f" stroke-miterlimit="10" fill="none"/><path d="M62.75 173.277l-3.793 25.188" stroke-width="1.2" stroke="#000" stroke-miterlimit="10" fill="none"/><path d="M78.875 214.34l11.855-4.656" stroke-width="1.2" stroke="#00f" stroke-miterlimit="10" fill="none"/><path d="M90.73 209.684l11.852-4.653" stroke-width="1.2" stroke="#000" stroke-miterlimit="10" fill="none"/><path d="M75.875 208.84h7v11h-7zm0 0" fill="#fff"/><use xlink:href="#a" x="75.875" y="217.503" fill="#00f"/><path d="M102.582 205.03l19.918 15.876M108.313 201.93l15.933 12.703M106.375 179.844l-3.793 25.187M122.5 220.906l11.855-4.656" stroke-width="1.2" stroke="#000" stroke-miterlimit="10" fill="none"/><path d="M134.355 216.25l11.856-4.656M146.21 211.594L148.106 199" stroke-width="1.2" stroke="#00f" stroke-miterlimit="10" fill="none"/><path d="M148.105 199L150 186.41" stroke-width="1.2" stroke="#000" stroke-miterlimit="10" fill="none"/><path d="M140.66 208.184l1.52-10.075" stroke-width="1.2" stroke="#00f" stroke-miterlimit="10" fill="none"/><path d="M142.18 198.11l1.515-10.075" stroke-width="1.2" stroke="#000" stroke-miterlimit="10" fill="none"/><path d="M143.21 206.094h7v11h-7zm0 0" fill="#fff"/><use xlink:href="#a" x="143.211" y="214.757" fill="#00f"/><path d="M150 186.41l-9.957-7.94" stroke-width="1.2" stroke="#000" stroke-miterlimit="10" fill="none"/><path d="M140.043 178.47l-9.96-7.94" stroke-width="1.2" stroke="#00f" stroke-miterlimit="10" fill="none"/><path d="M150 186.41l11.855-4.656" stroke-width="1.2" stroke="#000" stroke-miterlimit="10" fill="none"/><path d="M161.855 181.754l11.852-4.656" stroke-width="1.2" stroke="#f00" stroke-miterlimit="10" fill="none"/><path d="M130.082 170.53l-11.855 4.657" stroke-width="1.2" stroke="#00f" stroke-miterlimit="10" fill="none"/><path d="M118.227 175.188l-11.852 4.656" stroke-width="1.2" stroke="#000" stroke-miterlimit="10" fill="none"/><path d="M129.902 177.043l-9.484 3.723" stroke-width="1.2" stroke="#00f" stroke-miterlimit="10" fill="none"/><path d="M120.418 180.766l-9.48 3.722" stroke-width="1.2" stroke="#000" stroke-miterlimit="10" fill="none"/><path d="M127.082 165.03h7v11h-7zm0 0" fill="#fff"/><use xlink:href="#a" x="127.082" y="173.694" fill="#00f"/><path d="M106.375 179.844l-9.96-7.938" stroke-width="1.2" stroke="#000" stroke-miterlimit="10" fill="none"/><path d="M96.414 171.906l-9.957-7.94M86.457 163.965l-11.855 4.656" stroke-width="1.2" stroke="#00f" stroke-miterlimit="10" fill="none"/><path d="M74.602 168.62l-11.852 4.657" stroke-width="1.2" stroke="#000" stroke-miterlimit="10" fill="none"/><path d="M86.457 163.965l1.895-12.594" stroke-width="1.2" stroke="#00f" stroke-miterlimit="10" fill="none"/><path d="M88.352 151.37l1.894-12.593" stroke-width="1.2" stroke="#000" stroke-miterlimit="10" fill="none"/><path d="M83.457 158.465h7v11h-7zm0 0" fill="#fff"/><use xlink:href="#a" x="83.457" y="167.128" fill="#00f"/><path d="M64.617 170.934l-9.96-7.938" stroke-width="1.2" stroke="#000" stroke-miterlimit="10" fill="none"/><path d="M54.656 162.996L44.7 155.06" stroke-width="1.2" stroke="#f00" stroke-miterlimit="10" fill="none"/><path d="M60.883 175.62l-9.96-7.936" stroke-width="1.2" stroke="#000" stroke-miterlimit="10" fill="none"/><path d="M50.922 167.684l-9.957-7.942" stroke-width="1.2" stroke="#f00" stroke-miterlimit="10" fill="none"/><path d="M34.832 151.902h8v11h-8zm0 0" fill="#fff"/><use xlink:href="#b" x="34.832" y="160.565" fill="#f00"/><path d="M90.246 138.777l23.71-9.308M113.957 129.47l3.79-25.19M117.746 104.28l1.895-12.593" stroke-width="1.2" stroke="#000" stroke-miterlimit="10" fill="none"/><path d="M119.64 91.688l1.895-12.594" stroke-width="1.2" stroke="#00f" stroke-miterlimit="10" fill="none"/><path d="M124.05 102.652l1.516-10.074" stroke-width="1.2" stroke="#000" stroke-miterlimit="10" fill="none"/><path d="M125.566 92.578l1.52-10.074" stroke-width="1.2" stroke="#00f" stroke-miterlimit="10" fill="none"/><path d="M112.2 100.87l1.515-10.073" stroke-width="1.2" stroke="#000" stroke-miterlimit="10" fill="none"/><path d="M113.715 90.797l1.515-10.078" stroke-width="1.2" stroke="#00f" stroke-miterlimit="10" fill="none"/><path d="M118.535 73.594h7v11h-7zm0 0" fill="#fff"/><use xlink:href="#a" x="118.535" y="82.257" fill="#00f"/><path d="M173.707 177.098l9.96 7.937" stroke-width="1.2" stroke="#f00" stroke-miterlimit="10" fill="none"/><path d="M183.668 185.035l9.957 7.938" stroke-width="1.2" stroke="#000" stroke-miterlimit="10" fill="none"/><path d="M169.707 171.598h8v11h-8zm0 0" fill="#fff"/><use xlink:href="#b" x="169.707" y="180.261" fill="#f00"/><path d="M193.625 192.973l23.707-9.31M217.332 183.664l19.918 15.875M223.063 180.563l15.933 12.703M221.125 158.477l-3.793 25.187M237.25 199.54l23.71-9.313M260.96 190.227l3.79-25.184M255.41 186.816l3.035-20.148M264.75 165.043l-19.918-15.88M244.832 149.164l-23.707 9.313M244.652 155.676l-18.964 7.445" stroke-width="1.2" stroke="#000" stroke-miterlimit="10" fill="none"/></g></svg>
